X: 81
T: Huolang maihuo
L: 1/8
M: 4/8
K: C
E G G [I:setbarnb 1]| 
c2c | 
e e d d | 
e d/ e/ d c | 
z e d e | 
d Ac2 | 
c c A G | 
[M:3/8]E3 | 
E2G | 
[M:4/8]A G E D | 
A G E D | 
E z d d | 
[M:3/8]e c d | 
[M:4/8]c cA2 | 
G c A G | 
E3 |]

@@@ Tune index: 8955
